X:1
T:James Gibb editions
T:Le chant des oiseaux - Janequin
T:#
%%score [ 1 2 3 4 ]
L:1/8
Q:1/4=200
M:4/4
K:F
V:1 treble nm="Soprano "
V:2 treble nm="Alto"
V:3 treble-8 nm="Tenor"
V:4 bass nm="Bass"
V:1
 z8 | z8 |"^Le chant des oyseaulx""^Clément Janequin\n(1485-1558)" z8 | z8 | z8 | d4 d2 d2 | %6
w: |||||Res- veil- lez~|
 d4 d4 |[M:4/4] _e4 d2 c2 | B4 c4 | d6 d2 | c4 B4 | A8 | G8 | B4 B2 B2 | B4 z4 | z8 | z8 | %17
w: vous,~ cueurs~|en- dor- *|mis,~ Le|dieu d'a-|mours vous~|son-|ne,|res- veil- lez|vous,|||
 d4 d2 d2 | d4 d4 | _e4 (d2 c2) | B4 c4 | d6 d2 | c4 B4 | (A8 | G8 | B8 | A4 G4- | G4 ^F4) | G8- | %29
w: Vous se- rez|tous en|ioi- e *|mis, Car|la sai-|son est|bon\-|||||ne.|
 G8 | z8 | z8 | z8 | z8 | z8 | z8 | B6 B2 | A4 d4 | d4 ^c4 | d8 | z8 | z8 | B6 B2 | A4 d4 | %44
w: |||||||Les oy-|seaulx quand|sont ra-|vis|||Es- cou-|tez bien|
 d4 ^c4 | d8 | z4 A4 | c6 c2 | B4 A4 | (G4 A4- | A2 G2 G4- | G4 ^F4) | G8- | G8 | z8 | z8 | z8 | %57
w: leur de-|vis,|Des-|tou- pez|vos o-|reil\- *|||les.|||||
 z8 | z4 A4 | c6 B2 | A2 G2 A4 | B2 c2 B2 A2 | G2 FF G2 B2 | A6 d2 | c6 B2 | A6 d2 | c6 B2 | %67
w: |Et|fa- ri-|ra- ri- ron,|fre- re- ly io-|ly, fre- re- ly io-|ly, io-|ly, io-|ly, Et|fa- ri-|
 A2 G2 A4 | B2 c2 B2 A2 | G2 FF G2 B2 | A8 | z8 | z8 | z4 c4- | c2 cc A2 cc | A8 | z8 | z8 | z8 | %79
w: ra- ri- ron|fre- re- li io-|ly, fre- re- ly io-|ly,|||Tu,|* que dit tu, que dit|tu~?||||
 d2 d2 d2 d2 | d4 z4 | d2 d2 d2 d2 | d4 f4- | f2 e2 d2 e2 | f4 z4 | z4 d4- | d2 c2 B2 c2 | d4 z4 | %88
w: Le pe- tit mi-|gnon,|Le pe- tit mi-|gnon. Sain\-|* cte te- ste|Dieu,|Sain\-|* cte te- ste|Dieu,|
 f2 e2 d2 e2 | f4 d2 e2 | f2 f2 d2 _e2 | c2 B2 d2 =e2 | f4 f4 | c2 c2 d4 | d2 d2 d2 B2 | %95
w: Sain- cte te- ste|Dieu. Il est|temps, temps, d'al- ler|boi- re, Il est|temps, temps.|Au ser- mon|ma mais- tresse, A|
 c2 d2 d2 d2 | d2 dd d2 d2 | d2 dd d4 | e8- | e8 | e2 e2 e2 e2 | e2 e2 e2 e2 | e2 e2 e2 e2 | %103
w: sainct Tro- tin mous-|trer le té- tin, le|doulx mu- se- quin.|Tu||tu, tu, tu, tu,|tu, tu, tu, tu,|tu, co- qui, co-|
 e2 e2 e2 e2 | c8 | z8 | c8- | c8 | z2 c2 c2 c2 | c2 c2 c2 c2 | c4 c4- | c4 z4 | c8- | c8 | d8 | %115
w: qui, co- qui, co-|qui,||Tu,||oy, ty, oy,|ty, oy, ty, oy,|ty, tu,||tu,||huyt,|
 d8 | d8 | d8 | d8 | d8 | f2 f2 f2 f2 | f2 f2 f2 f2 | f2 f2 f2 f2 | f2 f2 f2 f2 | f2 f2 e2 f2 | %125
w: huyt,|huyt,|huyt,|huyt,|huyt,|ter, ter, ter, ter,|ter, ter, ter, ter,|Teo, teo, teo teo|teo teo teo teo|teo frian, frian, frian,|
 e2 f2 e2 f2 | e2 e2 e2 e2 | e2 e2 e4 | z8 | z8 | z8 | z8 | d2 d2 d2 d2 | d2 d2 d2 d2 | %134
w: frian, ti- cun, ti-|cun, tur- ry, tur-|ry qui- bi|||||ter, ter, ter, ter,|ter, fou- quet~ fou-|
 d2 d2 d2 d2 | d2 d2 d2 d2 | d2 d2 d4 | d8 | e4 e4 | e4 e4 | e2 e2 e2 e2 | e2 e2 e2 e2 | e4 c4- | %143
w: quet, si, ti, si,|ti, frian, frian, frian,|frain, frian, frian,|tu,|huy, huy,|huy, huy,|tar, tar, tar, tar,|tar, tar, tar, tar,|tar, trr,|
 c2 c2 c2 c2 | c4 c4- | c2 c2 c2 c2 | c4 c4- | c2 c2 c2 c2 | c4 c4- | c2 c2 c2 c2 | c4 c6 | %151
w: * oy, ty, oy,|ty, trr,|* tur- ry, tur-|ry, qrr,|* qui- bi, qui-|bi, frr,|* si- ti, si-|ti, frr,|
 c2 c2 c2 c4 | c4- c2 c2 | c2 c2 x4 | c4 c4 | A8 | z8 | d2 d2 A2 A2 | F4 A2 A2 | F8 | z8 | %161
w: fou- quet, fou- quet,|frr, * frian,|frian, frian,|frian, co-|cu||co, co- cu, co-|cu, co, co-|cu||
 d2 d2 B4 | A2 A2 F4- | F4 A4 | F8 | z8 | d2 d2 B2 B2 | A4 z4 | z4 z2 G2 | F4 z4 | z4 z2 G2 | %171
w: co, co- cu,|co, co- cu,|* co-|cu,||co, co- cu, co-|cu,|co-|cu|co-|
 F4 B2 B2 | G4 z2 G2 | F4 B2 B2 | G4 z4 | d4 d2 d2 | d2 d2 d2 d2 | d2 d2 d2 d2 | c2 B2 (d4- | %179
w: cu, co, co-|cu, co-|cu, co, co-|cu,|Par tra- hi-|son, en che- scun|nid, Pon- nez sans|qu'on vous son\-|
 d2 c2 B2 A2 | B8) | A8 | A4 A2 A2 | F2 F2 F2 F2 | F8 | z8 | z8 | z8 | z2 d2 d2 d2 | d2 d2 d2 d2 | %190
w: ||ne,|Par tra- hi-|son, en che- scun|nid,||||Par tra- hi-|son, en che- scun|
 d2 d2 d2 d2 | c2 B2 (d4- | d2 c2 B2 A2 | B8 | A8- | A4 G2 F2 | E6 D2) | E8- | E8 | z8 | z8 | z8 | %202
w: nid, Pon- nez sans|qu'on vous son\-||||||ne,|||||
 d4 d2 d2 | d4 d4 | _e4 (d2 c2) | B4 c4 | d6 d2 | c4 B4 | A8 | G8 | B4 B2 B2 | B4 z4 | z8 | z8 | %214
w: Res- veil- lez|vous, cueurs|en- dor\- *|mis, Le|dieu d'a-|mours vous|son-|ne,|Res- veil- lez|vous,|||
 d4 d2 d2 | d4 d4 | _e4 (d2 c2) | B4 c4 | d6 d2 | c4 B4 | (A8 |[Q:1/4=195] G8 |[Q:1/4=188] B8 | %223
w: Vous se- rez|tous en|ioy- e *|mis, Car|la sai-|son est|bon\-|||
[Q:1/4=182] A4[Q:1/4=178] G4- |[Q:1/4=175] G4[Q:1/4=171] ^F4) | %225
w: ||
[Q:1/4=10][Q:1/4=170] !fermata!G16 |] %226
w: ne.|
V:2
 A4 A2 A2 | A4 A4 | B4 (A2 G2) | (F6 GF | G4) A4 | B4 A2 G2 | F8 |[M:4/4] z4 F4 | G4 A4 | B6 B2 | %10
w: Res- veil- lez|vous, cueurs|en- dor\- *|mis, * *|* cueurs|en- dor- *|mis,|Le|dieu, d'a-|mours vous|
 (A4 G4- | G4 ^F4) | G8- | G8 | z8 | A4 A2 A2 | G4 A4 | B4 (A2 G2) | F8 | z4 F4 | G4 A4 | B6 B2 | %22
w: son\- *||ne,|||Vous se- rez|tous en|ioi- e *|mis,|Car|la sai-|son est|
 (A4 G4- | G4 ^F4 | G8 | =F8 | _E8 | D8) | D8- | D8 | z8 | z8 | F6 F2 | E4 A4 | A4 G4 | A4 E4 | %36
w: bon\- *||||||ne.||||Les oy-|seaulx quand|sont ra-|vis En|
 G6 G2 | F4 F4 | E8 | D8 | F6 F2 | E4 A4 | A4 G4 | A8 | z4 E4 | G6 G2 | F4 F4 | E8 | (D2 E2 F2 D2 | %49
w: leur chant|font mer-|veil-|les.|Es- cou-|tez bien|leur de-|vis,|Des-|tou- pez|vos o-|reil-|les. * * *|
 E4 F4 | D8) | z4 D4 | D2 D2 D2 D2 | E8 | z8 | z8 | z8 | z4 C4 | F6 F2 | E2 D2 E4 | F2 G2 F2 E2 | %61
w: ||Et|fa- ri- ra- ri-|ron,||||Et|fa- ri-|ra- ri- ron,|fa- ri- ra- ri-|
 D2 CC D2 F2 | E2 D2 D2 DE | F2 F2 E2 D2 | A4 z4 | DDDD F2 G2 | A4 z4 | D4 D4 | z4 z2 F2 | %69
w: ron, fre- re- ly io-|ly, io- ly fre- re-|ly io- ly, io-|ly,|fre- re- ly io- ly, io-|ly,|io- ly|fre-|
 D2 DD D2 G2 | F2 E2 F2 G2 | A8 | z4 F4 | F2 G2 A2 B2 | A4 z2 C2 | D2 C2 F4- | F2 FF F2 FF | %77
w: re- ly io- ly, io-|ly, io- ly, io-|ly|Chou-|ty tou- y, tou-|y, Tu|dy, tu dy,|* Le pe- tit san- so-|
 G6 GG | G2 G2 G2 G2 | B6 B2 | B2 B2 B2 B2 | B4 B2 B2 | F2 B2 B2 B2 | A4 z4 | z4 F4 | B4 F4 | z8 | %87
w: net, Le pe-|tit mi- gnon, Pe-|ti- te,|Le pe- tit mi-|gnon. Qu'est là|bas~? Pas- se vil-|lain.|Pe-|ti- te||
 z4 FGAB | A4 z4 | z4 z2 B2 | B2 B2 B2 B2 | A2 B2 G2 B2 | A4 z2 A2 | A2 F2 B2 B2 | A2 FF B4 | %95
w: Le pe- tit mi-|gnon.|Le|pe- tit san- so-|net, din dan din|dan Sus|ma- dame à la|mes- se, Pe- ti-|
 A2 F2 B4 | A4 z4 | A6 A2 | G2 A2 G2 A2 | G6 A2 | G2 A2 G2 A2 | G4 z2 AA | G2 AA G2 AA | %103
w: te, Pe- ti-|te.|Teo ti-|cun, ti- cun, ti-|cun, ti-|cun, ti- cun, ti-|cun, qui l'a-|ra, qui l'a- ra, qui l'a-|
 G2 GG G2 G2 | A8 | A8- | A8 | A8- | A8 | A8- | A8 | A8- | A8 | z2 AA F2 AA | F8- | F8 | %116
w: ra, fe- re- ly, si|ti,|tu,||tu,||tu,||tu,||qui l'a- ra, qui l'a-|ra,||
 B2 B2 B2 B2 | B2 B2 B2 B2 | B2 B2 B2 B2 | B2 B2 B2 B2 | A2 A2 A2 A2 | A4 z4 | z2 B2 A2 B2 | %123
w: Teo, teo, teo, teo,|teo, teo, teo, teo,|teo, teo, teo, teo,|teo, teo, teo, teo,|teo, teo, teo, teo,|teo,|oy, ty, oy,|
 A2 B2 A2 B2 | A4 A4- | A2 AA G2 AA | G8 | z8 | F8- | F8 | F8- | F8 | F2 F2 F2 F2 | F2 F2 F2 F2 | %134
w: ty, oy, ty, oy,|ty, trr,|* qui l'a- ra, qui l'a-|ra,||tu,||tu,||fou- quet, fou- quet,|si, ti, si, ti,|
 F2 F2 F2 F2 | F2 F2 F2 F2 | F4 F4- | F4 G4- | G2 G2 G2 G2 | G2 A2 G2 A2 | G2 G2 G2 G2 | %141
w: frian, frian, frian, frian,|frian, tu- ri, tu-|ri, tu,|* tu,|* tu, tu, tu,|tu, oy, ty, oy,|ty, tu- ri, tu-|
 G2 A2 G2 A2 | G2 GG A2 A2 | A4 A4- | A2 A2 A2 A2 | A4 A4- | A2 A2 A2 A2 | A4 A4- | A2 A2 A2 A2 | %149
w: ri, ty- cun, ty-|cun, fre- re- li, si,|ti, frr,|* oy, ty,~ oy,|ty, trr,|* tu- ri, tu-|ri, vrr,\_~|* si, ti, si,|
 A4 A4- | A2 A2 A2 A2 x2 | A4 A4- x2 | A2 A2 A2 A2 | A4 A4- | A2 A2 A2 A2 | A2 A2 F4 | %156
w: ti, frr,|* fou- quet, fou-|quet, frr,|* frian, frian, frian,|frian, frr,|* tur- ri, tur-|ri, co- qui|
 B2 B2 A2 B2 | F8 | A2 A2 F4- | F2 B2 A2 B2 | G4 F4 | D4 D2 D2 | D2 D2 A,4 | A4 F4- | F2 B2 A2 B2 | %165
w: co, co- cu, co-|cu,|co, co- cu|* co- cu, co-|cu, co-|cu, co, co,|co co- cu,|co- cu,|* co- cu, co-|
 G4 F4 | D4 D2 D2 | D2 D2 D2 E2 | F2 D2 G4 | D2 D2 F2 F2 | F2 F2 G4 | D2 D2 B,2 D2 | B,4 z4 | %173
w: cu co-|cu, co, co-|cu, Car vous n'e-|stes qu'un trai-|stre, Car cous n'e-|stes qu'un trai-|stre, co- cu, co-|cu,|
 D2 D2 B,2 D2 | B,4 z4 | F2 F2 D2 F2 | F2 F2 D4 | B4 B2 B2 | A2 G2 F2 E2 | D4 G4 | G4 G4 | F6 E2 | %182
w: co, co- cu, co-|cu,|co, co- cu, co-|cu, co- cu.|Par tra- hi-|son, en che- scun|nid. Pon-|nez sans|qu'on vous|
 F4 F4 | z4 D4 | D2 D2 D2 D2 | D2 D2 D4 | z8 | z8 | z8 | A4 A2 A2 | A2 A2 A2 A2 | A2 A2 A2 A2 | %192
w: son- ne,|Par|tra- hi- son, en|che- scun nid,||||Par tra- hi-|son, en che- scun|nid, Pon- nez sans|
 G2 F2 (A4- | A2 G2 F2 E2 | F8) | E8 | z8 | A4 A2 A2 | A4 A4 | B4 (A2 G2) | (F6 GF | G4) A4 | %202
w: qu'on vous son\-|||ne,||Res- veil- lez|vous, cueurs|en- dor\- *|mis * *|* cueurs|
 B4 (A2 G2) | F8 | z4 F4 | G4 A4 | B6 B2 | (A4 G4- | G4 ^F4) | G8- | G8 | z8 | A4 A2 A2 | G4 A4 | %214
w: en- dor\- *|mis,|Le|dieu d'a-|mours vous|son\- *||ne,|||Vous se- rez|tous en|
 B4 (A2 G2) | F8 | z4 F4 | G4 A4 | B6 B2 | (A4 G4- | G4 ^F4 | G8 | F8 | _E8 | D8) | !fermata!D16 |] %226
w: ioy- e *|mis,|Car|la sai-|son est|bon\- *||||||ne.|
V:3
 z8 | z8 | d4 d2 d2 | d4 d4 | _e4 d2 c2 | B8 | z4 B4 |[M:4/4][K:treble-8] c4 d4 | _e4 c4 | %9
w: ||Res- veil- lez|vous, cueurs|en- dor- *|mis,|Le|dieu d'a-|mours vous|
 (B2 c2 d2 =e2 | f4 g4 | d6 c2 | _e8) | d8 | d4 d2 d2 | d4 d4 | _e4 (d2 c2) | B8 | z4 B4 | c4 d4 | %20
w: son\- * * *||||ne,|re- veil- lez|vous, cueurs|en- dor\- *|mis,|Car|la sai-|
 _e4 c4 | (B4 f4- | f2 =e2 d2 c2 | d8) | B4 c4 | d6 d2 | c4 B4 | A8 | G8 | B6 B2 | A4 d4 | d4 ^c4 | %32
w: son est|bon\- *|||ne, Car|la sai-|son est|bon-|ne.|Les oy-|seaulx quand|sont ra-|
 d4 A4 | =c6 c2 | B4 B4 | A8 | G8 | z8 | z8 | B6 B2 | A4 d4 | d4 ^c4 | d4 d4 | f4 f4 | e4 z4 | %45
w: vis En|leur chant|font mer-|veil-|les.|||Es- cou-|tez bien|leur de-|vis, Des-|tou- pez|vos,|
 B6 B2 | A4 d4 | d4 ^c4 | d4 A4 | c6 c2 | B4 B4 | A8 | G4 G4 | c6 B2 | A2 G2 A4 | B2 c2 B2 A2 | %56
w: Es- cou-|tez bien|leur de-|vis, Des-|tou- pez|vos o-|reil-|les. Et|fa- ri-|ra- ri- ron,|fa- ri- ra- ri-|
 G2 FF G2 B2 | A8 | z8 | z4 A4 | d6 c2 | B2 A2 G2 FF | G2 A2 B2 G2 | c2 z2 z4 | edef e2 d2 | %65
w: ron, fre- re- ly jo-|ly||Et|fa- ri-|ra- ri- ron, fre- re-|ly, io- ly, io-|ly,|fre- re- ly io- ly, io-|
 f4 z4 | edef e2 d2 | f6 e2 | d2 c2 d2 dc | B2 A2 B2 G2 | d2 d2 A4- | A2 B2 c2 d2 | e2 c2 d2 e2 | %73
w: ly,|fre- re- ly io- ly, io-|ly, io-|ly io- ly io- ly,|io- ly, io- ly,|io- ly, Ty,|* ty, ty, pi,|ty chou- thi thou-|
 f2 d2 e2 e2 | f8- | f4 z2 d2 | d2 dd B2 dd | B8- | B8 | z4 f2 f2 | f2 f2 f4 | z4 f4- | %82
w: y, thou- y, thou-|y,|* Tu|dit que dit tu, que dit|tu?||Le pe-|tit mi- gnon|Sain\-|
 f2 e2 d2 e2 | f2 c2 g4 | d8- | d8 | z4 G2 A2 | B2 G2 A4 | d2 e2 f4 | d2 e2 f4 | z8 | z8 | %92
w: * cte te- ste|Dieu, Pe- ti-|te,||Le pe-|tit mi- gnon.|Il est temps,|Il est temps,|||
 z4 d2 e2 | f4 f4 | f4 d2 _e2 | c2 B2 d2 =e2 | f4 f4 | f8 | c2 c2 c2 c2 | c2 c2 c2 c2 | c4 c4- | %101
w: Il est|temps, temps,|temps d'al- ler|boi- re, Il est|temps, temps,|temps.|Frian, frian, frian, frian,|frian, frian, frian, frian|tu, tu,|
 c4 c4- | c4 c4- | c4 c4 | z2 f2 f2 f2 | f2 f2 f2 f2 | f2 f2 f2 f2 | f6 ff | e2 ff e2 ff | e6 ff | %110
w: * tu,|* tu,|* tu,|co- qui, co-|qui, co- qui, co-|qui, si, ty, si,|ti, qui l'a-|ra, qui l'a- ra, qui l'a-|ra, qui l'a-|
 e2 ff e2 ff | e4 f2 e2 | f2 e2 f2 e2 | f2 c4 A2 | B6 B2 | B8 | z2 g2 g2 g2 | g2 g2 g2 g2 | %118
w: ra, qui- la- ra, qui- la-|ra, ty cun,|ty cun, ty cun,|ty, cun, Oy|ty, oy,|ty,|oy, tu, oy,|tu, oy, tu, oy,|
 g4 g4- | g4 z4 | d8 | d8 | d8 | d8 | z8 | z4 z2 A2 | c4 c4 | c4 c2 cc | A6 B2 | A2 B2 A2 B2 | %130
w: ti, tu,||tu,|tu,|tu,|tu,||Et|huy, huy,|huy, huy, qui l'a-|ra ti-|cun, ti- cun, ti-|
 A4 z2 A2 | A2 A2 A2 A2 | B4 z2 B2 | B4 z4 | z4 B4 | B4 B4 | B4 B4 | B2 BB G2 BB | G4 c4- | %139
w: cun, co-|qui, co- qui, co-|qui, co-|qui.|huy,|huy, huy,|huy, huy,|huit, qui l'a- ra, qui l'a-|ra, frr,|
 c2 c2 c2 c2 | c2 c2 c2 c2 | c2 c2 c2 c2 | c2 cc A4 | f6 f2 | f2 f2 f4 | f6 f2 | f2 f2 f4 | f6 f2 | %148
w: * si, ty, si,|ty, tur- ri, tur-|ri, qui- bi, qui-|bi, qui- la- ra,|trr, tar,|tar, tar, tar,|ter, tur-|ri, tur- ri,|qrr, qui|
 f2 f2 f4 | f6 f2 | f2 f2 f4 x2 | f6 f2 x2 | f2 f2 f4 | f6 f2 | f2 f2 f4 | f4 c4 | d4 d2 d2 | %157
w: \-~bi, qui- bi,|vrr, si-|ti, si- ti,|frr, fou-|quet, fou- quet,|frr, frian,|frian, frian, frian,|ty, tu,|Fuy- ez, fuy-|
 d4 z4 | d4 d2 d2 | d2 d2 d2 d2 | B2 c2 d2 e2 | f2 d2 g4 | f4 z4 | d4 d2 d2 | d2 d2 d2 d2 | %165
w: ez,|fuy- ez, fuy-|ez mai- stre co-|cu, Sor- tez de|nos cha- pi-|tre,|Vous ne se-|rez poinct re- te-|
 B2 c2 d2 e2 | f2 d2 g4 | f2 f2 d4 | z2 B2 B2 G2 | z2 f2 d4 | z2 B2 B2 G2 | B2 F2 G2 D2 | %172
w: nu, Car vous n'e-|stes qu'un trai-|stre, co- cu,|co- co- cu,|co- cu,|co, co- cu,|co- cu, co- cu,|
 z2 B2 B2 G2 | B2 F2 G2 D2 | z2 B2 B2 G2 | B2 F2 G2 D2 | B2 B2 F2 B2 | G8 | z8 | z8 | z8 | %181
w: co, co- cu,|co- cu, co- cu,|co, co- cu,|co- cu, co- cu.|co, co- cu, co-|cu.||||
 d4 d2 d2 | d2 d2 d2 d2 | d8 | z8 | f4 f2 f2 | f2 f2 f2 f2 | f2 f2 f2 f2 | e2 d2 g4- | g2 f2 f4 | %190
w: Par tra- hi-|son, en che- scun|nid,||Par tra- hi-|son, en che- scun|nid,~ pon- nez sans|quon vous son\-|* ne, sans|
 f4 f4 | e4 d4 | d4 d2 d2 | d4 d4 | d4 d4 | ^c8- | c8 | ^c8 | ^c8 | d4 d2 d2 | d4 d4 | %201
w: qu'on vous|son- ne,|Re- veil- lez|vous, cueurs|en- dor-|mis,||||Res- veil- lez|vous, cueurs|
 _e4 (d2 c2) | B8 | z4 B4 | c4 d4 | _e4 c4 | (B2 c2 d2 e2 | f4 g4 | d6 c2 | _e8) | d8 | d4 d2 d2 | %212
w: en- dor\- *|mis,|Le|dieu d'a-|mours vous|son\- * * *||||ne,|res- veil- lez|
 d4 d4 | _e4 (d2 c2) | B8 | z4 B4 | c4 d4 | _e4 c4 | (B4 f4- | f2 e2 d2 c2 | d8) | B4 c4 | d6 d2 | %223
w: vous cueurs|en- dor\- *|mis,|le|dieu d'a-|mours vous|son\- *|||ne, le|dieu d'a-|
 c4 B4 | A8 | !fermata!G16 |] %226
w: mours vous|son-|ne.|
V:4
 z8 | z8 | z8 | z8 | z8 | z8 | z8 |[M:4/4] z8 | z8 | z8 | z8 | z8 | G,4 G,2 G,2 | G,4 G,4 | %14
w: ||||||||||||Res- veil- lez|vous, cueurs|
 B,4 (A,2 G,2) | F,8 | z4 F,4 | G,6 A,2 | B,8 | z8 | z8 | z4 B,,4 | F,4 G,4 | D,4 D,4 | _E,6 E,2 | %25
w: en- dor\- *|mis,|re-|veil- lez|vous,|||re-|veil- lez|vous, Car|la sai-|
 D,4 B,,4 | C,8 | D,8 | G,6 G,2 | G,4 G,4 | (F,4 E,2 D,2 | E,4) E,4 | D,8 | z8 | z8 | F,4 C4- | %36
w: son est|bon-|ne.|Les oy-|seaulx quand|sont * *|* ra-|vis|||En leur|
 C2 B,2 B,2 C2 | D8 | A,8 | z8 | D,6 D,2 | A,4 A,4 | B,4 B,4 | F,6 D,2 | A,4 A,4 | G,4 G,4 | (D,8 | %47
w: * chant font mer-|veil-|les.||Es- cou-|tez bien|leur de-|vis, Des-|tou- pez|vos o-|reil\-|
 A,8) | D,8 | z4 F,4 | G,6 G,2 | D,4 D,4 | G,8 | C,8 | F,6 E,2 | D,2 C,2 D,2 F,2 | %56
w: |les.|Des-|tou- pez|vos o-|reil-|les.|Fa- ri-|ra- ri- ron, et|
 _E,2 D,2 C,2 B,,2 | F,2 F,F, F,2 F,2 | D,8 | z8 | z8 | z8 | z2 D,2 G,2 G,2 | F,2 D,D, A,2 B,2 | %64
w: fa- ri- ra- ri-|ron, fre- re- ly jo-|ly,||||io- ly, io-|ly, fre- re- ly io-|
 A,4 z4 | z2 D,2 A,2 B,2 | A,4 z4 | z4 D,4 | G,2 A,A, G,2 F,2 | G,2 D,2 G,2 G,2 | D,6 E,2 | %71
w: ly,|io- ly, io-|ly|io-|ly, fre- re- ly io-|ly, io- ly, io-|ly. Ty,|
 F,2 G,2 A,4- | A,2 A,2 B,4- | B,2 B,2 A,2 A,A, | F,8 | z2 F,F, D,2 F,F, | D,6 D,D, | _E,6 x E, | %78
w: ty, pi, ty,|* Tu, que|* dit tu, que dit|tu,|que dit tu, que dit|tu~? Le pe-|tit, pe-|
 _E,2 E,E, E,2 E,E, | B,,8- | B,,8 | B,,8 | B,,8 | z8 | B,6 A,2 | G,2 A,2 B,4 | G,2 G,2 G,2 G,2 | %87
w: tit san- son- net, de Pa-|ris.|||||Sain- cte|te- ste Dieu,|Qu'est là bas~? Pas-|
 G,2 G,2 D,4 | z4 B,4 | B,2 B,2 B,2 B,2 | B,2 B,,2 B,,2 B,,2 | F,2 G,2 G,2 G,2 | D,8 | z4 B,2 C2 | %94
w: se vil- lain.|San-|son- net de Pa-|ris, Sai- ge, cour-|toys et bien a-|pris.|Il est|
 D2 DD B,2 G,2 | A,2 B,2 G,2 G,G, | D,8- | D,8 | z8 | z8 | z8 | z8 | z8 | z8 | F,8- | F,8 | %106
w: temps, que dit tu, Il|est temps, temps, que dit|tu?||||||||Ter,||
 F,2 F,2 F,2 F,2 | F,2 F,2 F,2 F,2 | A,8- | A,8 | z2 A,2 A,2 A,2 | A,2 A,2 A,2 A,2 | %112
w: frian, frian, frian, frian,|frian, frian, frian, frian,|tu,||tur- ri, tur-|ri, tur- ri, tur-|
 A,2 A,A, F,2 A,A, | F,8 | z8 | z8 | G,8- | G,8 | G,8- | G,8 | z8 | z8 | z8 | z8 | z8 | z8 | %126
w: ri, qui l'a- ra, qui l'a-|ra,|||Tu,||tu,||||||||
 C,2 C,2 C,2 C,2 | C,2 C,2 C,2 C,2 | D,2 D,2 D,2 D,2 | D,2 D,2 D,2 D,2 | D,2 D,2 D,2 D,2 | D,4 z4 | %132
w: queo, queo, queo, queo,|queo, queo, queo, queo,|tar, tar, tar, tar,|tar, fou- quet, fou-|quet, qui- bi, qui-|bi,|
 B,,8- | B,,8 | B,,8- | B,,8 | z8 | z8 | C,2 C,2 C,2 C,2 | C,2 C,C, C,2 C,C, | C,4 C,4 | C,4 C,4 | %142
w: tu,||tu,||||queo, queo, queo, queo,|queo, ve- le- cy, ve- le-|cy, huyt,|huyt, huyt,|
 C,4 F,2 F,2 | F,2 F,2 F,4 | F,6 F,2 | F,2 F,2 F,4 | F,6 F,2 | F,2 F,2 F,4 | F,6 F,2 | %149
w: huyt, ter, ter,|ter, ter, ter,|ter tur-|ry, tur- ry,|ter qui-|bi, qui- bi,~|Vrr, si-|
 F,2 F,2 F,4 | F,6 F,2 x2 | F,2 F,2 F,4 x2 | F,6 F,2 | F,2 F,2 F,2 F,2 | F,2 F,2 F,2 F,2 | %155
w: ti si- ti|Frr, fou-|quet, fou- quet,|frr, frian,|frian, frian, frian, co-|qui, co, qui, tu-|
 F,2 F,2 F,2 A,A, | G,4 F,2 G,2 | D,4 D,4 | D,2 D,2 D,2 D,2 | D,2 B,,2 D,2 B,,2 | _E,4 B,,4 | %161
w: ry, qui- bi, Où est|il le co-|cu? Fuy-|ez, fuy- ez, co,|co- cu, co- cu,|co- cu,|
 B,4 G,2 G,2 | D,2 D,2 D,2 D,2 | D,4 z2 D,2 | D,2 D,2 D,2 B,,2 | _E,2 E,2 B,,4 | B,2 B,2 G,2 G,2 | %167
w: Fuy- ez, fuy-|ez mai- stre co-|cu, Vous|ne se- rez poinct|re- te- nu|co, co- cu, co-|
 D,2 D,2 B,,2 C,2 | D,2 B,,2 _E,4 | B,,2 D,2 B,,2 C,2 | D,2 B,,2 _E,4 | B,,8 | _E,2 E,2 B,,2 E,2 | %173
w: cu, Car vous n'e-|stes qu'un trai-|stre, Car vous n'e-|stes qu'un trai-|stre,|co, co- cu, co-|
 B,,8 | _E,2 E,2 B,,2 E,2 | B,,8- | B,,8 | z8 | z8 | z8 | z8 | z8 | z8 | B,4 B,2 B,2 | %184
w: cu,|co, co- cu, co-|cu,||||||||Par tra- hi-|
 B,2 B,2 B,2 B,2 | B,2 B,2 B,2 B,2 | A,2 G,2 (B,4- | B,2 A,2 G,2 F,2 | G,8 | (D,6 C,2 | %190
w: son, en che- scun|nid, Pon- nez sans|quon vous son\-|||ne *|
 D,2 E,2 F,2 G,2 | A,4) D,4 | G,6 F,2 | G,8 | D,8 | A,4 A,2 A,2 | A,4 A,4 | A,4 A,4 | A,6 A,2 | %199
w: |* sans|qu'on vous|son-|ne,|Res- veil- lez|vous, cueurs|en- dor-|mis, cueurs|
 G,4 F,4 | B,6 A,2 | G,4 F,4 | G,8 | z8 | z8 | z8 | z8 | z8 | z8 | G,4 G,2 G,2 | G,4 G,4 | %211
w: en- dor-|mis, cueurs|en- dor-|mis|||||||Vous se- rez|tous en|
 B,4 A,2 G,2) | F,8 | z4 F,4 | G,6 A,2 | B,8 | z8 | z8 | z4 B,,4 | F,4 G,4 | D,4 D,4 | _E,6 E,2 | %222
w: ioi- e *|mis,|Res-|veil- lez|vous,|||Res-|veil- lez|vous, Car|la sai-|
 D,4 B,,4 | (C,8 | D,8) | !fermata!G,16 |] %226
w: son est|bon\-||ne.|

